X:1
T: Mrs. Garthland's Strathspey
P: for the 8x32S3 dance Mrs. Garthland's Strathspey
B: RSCDS "Five Traditional Scottish Country Dances for 1965"
C: attr. Nathaniel Gow
Z: T. Traub 5-15-2007
M: 4/4
L: 1/8
K: G
|: D|"G"G2 B>G B<d g2|"G"G2 "C"c/B/A/G/ "D"F<A A>B|"G"G2 B>G B<d g2|"Am"c>A "D"c/B/A/G/ "G"D<G G :|
d/c/|"G"B<d d>g "D"b/a/g/f/ "G"g2|"G"B<G d>G "D"F<A Ad/c/|"G"B<d d>g "B"b/a/g/f/ "Em"g>B|"C"c>A "D"de/c/ "G"B<G Gd/c/|
"G"B<d d>g "D"b/a/g/f/ "G"g>c|"G"B<G d>G "D"F<A AB/c/|"G"d>cB>c B>AG>E|"D"F<D de/c/ "G"B<G G |]
